assets/Cupcake/Flat/cupcake_flat.svg

<svg width="32" height="32" viewBox="0 0 32 32" fill="none" xmlns="http://www.w3.org/2000/svg">
<path d="M20.0862 5.00243C20.1453 5.05287 20.1976 5.09763 20.25 5.15C20.72 5.6 21.02 6.24 21.01 6.95C21.01 7.32887 20.9256 7.68813 20.7746 8.01001H21.52C23.45 8.01001 25.02 9.57001 25.01 11.51C25.01 12.0477 24.8881 12.5575 24.6705 13.0132C26.531 13.0923 28.02 14.6304 28.02 16.51C28.02 18.44 26.45 20.01 24.52 20.01H7.5C5.57 20.01 4 18.44 4 16.51C4 14.6337 5.4838 13.0977 7.33967 13.0136C7.12195 12.5579 7 12.0479 7 11.51C7 9.57001 8.57 8.01001 10.51 8.01001H11.2455C11.0944 7.68813 11.01 7.32887 11.01 6.95C11.01 6.19 11.34 5.52 11.86 5.06L14.89 2.42C15.53 1.86 16.49 1.86 17.13 2.42L20.06 4.98C20.0689 4.98763 20.0776 4.99509 20.0862 5.00243Z" fill="#FF6DC6"/>
<path d="M18.29 9.46007C18.09 9.66007 18.09 9.97007 18.29 10.1701C18.48 10.3701 18.8 10.3701 19 10.1701L19.74 9.43007C19.94 9.23007 19.94 8.92007 19.74 8.72007C19.54 8.52007 19.23 8.52007 19.03 8.72007L18.29 9.46007ZM9.20001 13.4301C9.20001 13.1501 9.42001 12.9301 9.70001 12.9301H10.75C11.03 12.9301 11.25 13.1501 11.25 13.4301C11.25 13.7101 11.03 13.9301 10.75 13.9301H9.70001C9.42001 13.9301 9.20001 13.7101 9.20001 13.4301ZM20.87 18.1101C21.07 17.9101 21.07 17.6001 20.87 17.4001L20.13 16.6601C19.93 16.4601 19.62 16.4601 19.42 16.6601C19.22 16.8601 19.22 17.1701 19.42 17.3701L20.16 18.1101C20.36 18.3101 20.67 18.3101 20.87 18.1101Z" fill="#5092FF"/>
<path d="M15.99 6.69998C16.19 6.89998 16.5 6.89998 16.7 6.69998C16.9 6.50998 16.9 6.18998 16.7 5.99998L15.96 5.24998C15.76 5.04998 15.45 5.04998 15.25 5.24998C15.05 5.44998 15.05 5.75998 15.25 5.95998L15.99 6.69998ZM20.74 11.78C20.94 11.58 21.25 11.58 21.45 11.78L22.19 12.52C22.39 12.72 22.39 13.03 22.19 13.23C21.99 13.43 21.68 13.43 21.48 13.23L20.74 12.49C20.54 12.3 20.54 11.98 20.74 11.78ZM11.86 18.11C11.66 17.91 11.66 17.6 11.86 17.4L12.6 16.66C12.8 16.46 13.11 16.46 13.31 16.66C13.51 16.86 13.51 17.17 13.31 17.37L12.57 18.11C12.38 18.31 12.06 18.31 11.86 18.11Z" fill="#EFD5FF"/>
<path d="M12.47 9.46007C12.27 9.66007 12.27 9.97007 12.47 10.1701C12.66 10.3701 12.98 10.3701 13.17 10.1701L13.92 9.43007C14.12 9.23007 14.12 8.92007 13.92 8.72007C13.72 8.52007 13.41 8.52007 13.21 8.72007L12.47 9.46007ZM7.24 15.7601C7.04 15.9601 7.04 16.2701 7.24 16.4701C7.44 16.6601 7.75 16.6601 7.95 16.4701L8.69 15.7301C8.89 15.5301 8.89 15.2201 8.69 15.0201C8.49 14.8201 8.18 14.8201 7.98 15.0201L7.24 15.7601ZM23.33 16.4701C23.13 16.2701 23.13 15.9601 23.33 15.7601L24.07 15.0201C24.27 14.8201 24.58 14.8201 24.78 15.0201C24.98 15.2201 24.98 15.5301 24.78 15.7301L24.04 16.4701C23.84 16.6601 23.52 16.6601 23.33 16.4701ZM15.99 14.1601C16.19 14.3601 16.5 14.3601 16.7 14.1601C16.9 13.9601 16.9 13.6501 16.7 13.4501L15.96 12.7101C15.76 12.5101 15.45 12.5101 15.25 12.7101C15.05 12.9101 15.05 13.2201 15.25 13.4201L15.99 14.1601Z" fill="#FFB02E"/>
<path d="M25.24 19.98H6.78C5.59 19.98 4.74 21.12 5.08 22.26L7.18572 29.1556C7.30572 29.5356 7.66572 29.7956 8.07572 29.7956H23.9457C24.3457 29.7956 24.7057 29.5356 24.8357 29.1556L26.95 22.26C27.28 21.12 26.43 19.98 25.24 19.98Z" fill="#FBB8AB"/>
<path d="M8 30H16H24C25.04 30 25.3913 29.3541 25.5 29C25.5 29 27.4359 22.9284 27.3155 22.4361C27.2422 22.1757 26.9219 22.1445 26.8268 22.3445L26.6741 22.6957L26.5672 22.4361C26.4967 22.2751 26.1409 22.0651 25.7883 22.4361L25.04 23.3066C24.9742 23.3834 24.8576 23.4067 24.811 23.3066L24.4667 22.5142C24.2917 22.1292 23.5684 22.0359 23.0026 22.5492L22.1995 23.3066C22.0518 23.4592 21.8243 23.4884 21.6803 23.3066L20.9778 22.4361C20.6226 22.0067 19.7884 22.1934 19.2521 22.5888L18.3969 23.3066C18.1901 23.4534 17.9334 23.4767 17.7402 23.3066L16.9418 22.5142C16.4926 22.1526 15.571 22.0242 15.0226 22.5492L14.2278 23.3066C14.0835 23.4184 13.7801 23.4359 13.6017 23.3066L12.561 22.4362C12.1118 22.0534 11.2543 22.1234 10.8752 22.5888L10.303 23.3066C10.2102 23.4126 10.041 23.4593 9.8296 23.3066L8.85222 22.4361C8.46602 22.1117 7.73102 22.1059 7.49306 22.5888L7.21817 23.1997C7.21817 23.1997 7.14186 23.4593 7.00437 23.3066L6.28661 22.4361C5.77687 21.8843 5.38604 22.4361 5.30923 22.6957L5.15652 22.3445C5.0302 22.0709 4.51105 22.3445 4.69837 23.0012L6.5 29C6.57677 29.2319 7.00437 30 8 30Z" fill="#5092FF"/>
<path d="M11.9099 30L10.9903 25.4019C10.9361 25.1311 10.6727 24.9555 10.4019 25.0097C10.1312 25.0638 9.95556 25.3273 10.0097 25.598L10.8901 30H11.9099ZM21.1099 30L21.9903 25.598C22.0444 25.3273 21.8688 25.0638 21.5981 25.0097C21.3273 24.9555 21.0639 25.1311 21.0097 25.4019L20.0901 30H21.1099ZM16.5 25.5V30H16H15.5V25.5C15.5 25.2239 15.7239 25 16 25C16.2761 25 16.5 25.2239 16.5 25.5Z" fill="#3F5FFF"/>
</svg>

<svg xmlns="http://www.w3.org/2000/svg" width="32" height="32" fill="none"><path fill="#FF6DC6" d="M20.086 5.002c.06.05.112.096.164.148.47.45.77 1.09.76 1.8 0 .379-.084.738-.235 1.06h.745c1.93 0 3.5 1.56 3.49 3.5a3.48 3.48 0 0 1-.34 1.503 3.504 3.504 0 0 1 3.35 3.497c0 1.93-1.57 3.5-3.5 3.5H7.5c-1.93 0-3.5-1.57-3.5-3.5a3.504 3.504 0 0 1 3.34-3.496 3.5 3.5 0 0 1 3.17-5.004h.736a2.488 2.488 0 0 1-.236-1.06c0-.76.33-1.43.85-1.89l3.03-2.64c.64-.56 1.6-.56 2.24 0l2.93 2.56.026.022Z"/><path fill="#5092FF" d="M18.29 9.46c-.2.2-.2.51 0 .71.19.2.51.2.71 0l.74-.74c.2-.2.2-.51 0-.71-.2-.2-.51-.2-.71 0l-.74.74ZM9.2 13.43c0-.28.22-.5.5-.5h1.05c.28 0 .5.22.5.5s-.22.5-.5.5H9.7c-.28 0-.5-.22-.5-.5Zm11.67 4.68c.2-.2.2-.51 0-.71l-.74-.74c-.2-.2-.51-.2-.71 0-.2.2-.2.51 0 .71l.74.74c.2.2.51.2.71 0Z"/><path fill="#EFD5FF" d="M15.99 6.7c.2.2.51.2.71 0 .2-.19.2-.51 0-.7l-.74-.75c-.2-.2-.51-.2-.71 0-.2.2-.2.51 0 .71l.74.74Zm4.75 5.08c.2-.2.51-.2.71 0l.74.74c.2.2.2.51 0 .71-.2.2-.51.2-.71 0l-.74-.74c-.2-.19-.2-.51 0-.71Zm-8.88 6.33c-.2-.2-.2-.51 0-.71l.74-.74c.2-.2.51-.2.71 0 .2.2.2.51 0 .71l-.74.74c-.19.2-.51.2-.71 0Z"/><path fill="#FFB02E" d="M12.47 9.46c-.2.2-.2.51 0 .71.19.2.51.2.7 0l.75-.74c.2-.2.2-.51 0-.71-.2-.2-.51-.2-.71 0l-.74.74Zm-5.23 6.3c-.2.2-.2.51 0 .71.2.19.51.19.71 0l.74-.74c.2-.2.2-.51 0-.71-.2-.2-.51-.2-.71 0l-.74.74Zm16.09.71c-.2-.2-.2-.51 0-.71l.74-.74c.2-.2.51-.2.71 0 .2.2.2.51 0 .71l-.74.74c-.2.19-.52.19-.71 0Zm-7.34-2.31c.2.2.51.2.71 0 .2-.2.2-.51 0-.71l-.74-.74c-.2-.2-.51-.2-.71 0-.2.2-.2.51 0 .71l.74.74Z"/><path fill="#FBB8AB" d="M25.24 19.98H6.78a1.77 1.77 0 0 0-1.7 2.28l2.106 6.896c.12.38.48.64.89.64h15.87c.4 0 .76-.26.89-.64l2.114-6.896c.33-1.14-.52-2.28-1.71-2.28Z"/><path fill="#5092FF" d="M8 30h16c1.04 0 1.391-.646 1.5-1 0 0 1.936-6.072 1.816-6.564-.074-.26-.394-.291-.49-.091l-.152.35-.107-.259c-.07-.16-.426-.37-.779 0l-.748.87c-.066.077-.182.1-.229 0l-.344-.792c-.175-.385-.899-.478-1.464.035l-.803.758c-.148.152-.376.181-.52 0l-.702-.87c-.355-.43-1.19-.244-1.726.152l-.855.718c-.207.146-.464.17-.657 0l-.798-.793c-.45-.361-1.371-.49-1.92.035l-.794.758c-.144.111-.448.129-.626 0l-1.041-.87c-.45-.384-1.307-.314-1.686.152l-.572.718c-.093.106-.262.152-.473 0l-.978-.87c-.386-.325-1.121-.331-1.359.152l-.275.61s-.076.26-.214.108l-.717-.87c-.51-.553-.901 0-.978.259l-.152-.352c-.127-.273-.646 0-.459.657L6.5 29c.077.232.504 1 1.5 1Z"/><path fill="#3F5FFF" d="m11.91 30-.92-4.598a.5.5 0 0 0-.98.196L10.89 30h1.02Zm9.2 0 .88-4.402a.5.5 0 0 0-.98-.196L20.09 30h1.02Zm-4.61-4.5V30h-1v-4.5a.5.5 0 0 1 1 0Z"/></svg>
